X:1
T:When He Comes in Glory By and By
T:When He Comes in Glory By and By
T:Arthur A. Westbrook
T:Arthur A. Westbrook, 1911
T:Public Domain Courtesy of the Cyber Hymnal™
C:Arthur A. Westbrook
Z:Public Domain
Z:Courtesy of the Cyber Hymnal™
%%score ( 1 2 ) ( 3 4 )
L:1/8
Q:1/4=105
M:4/4
K:Bb
V:1 treble 
V:2 treble 
V:3 bass 
V:4 bass 
V:1
 [DF][DF] | [DB]2 [DB]2 [Fd]2 [FB]2 | [GB]2 [EG]2 [DF]2 [DF][DF] | [DB]2 [DB]2 [Fd][Fd][Fc][FB] | %4
w: 1.~O how|sweet ’twill be to|meet the Lord, When He|comes in glo- ry, by and|
w: 2.~We will|have our robes all|white as snow, When He|comes in glo- ry, by and|
w: 3.~I am|long- ing for that|hap- py day, When He|comes in glo- ry, by and|
 [Fc]6 [EF][EF] | [DB]2 [DB]2 [Fd]2 [FB]2 | [GB]2 [EG]2 [DF]2 [DB][Ec] | %7
w: by; What a|song of praise will|be out- poured, When He|
w: by; O be|rea- dy with the|Lord to go, When He|
w: by; For with|Him I hope to|soar a- way, When He|
 [Fd]2 [Fd]2 [Fd][DB][Ec][Ec] | [DB]6 ||"^Refrain" [Fd]2 | B6 [EG]2 | F6 [FB][Fc] | d6 [=Ec][EB] | %13
w: comes in glo- ry, by and|by.|||||
w: comes in glo- ry, by and|by.|How|sweet! How|sweet! When He|comes in the|
w: comes in glo- ry, by and|by.|||||
 c6 [Fd]2 | f6 [FB]2 | d6 [DB][Ec] | [Fd]2 [Fd]2 [Fd][DB][Ec][Ec] | [DB]6 |] %18
w: |||||
w: sky! What|joy! What|joy! When He|comes in glo- ry, by and|by.|
w: |||||
V:2
 x2 | x8 | x8 | x8 | x8 | x8 | x8 | x8 | x6 || x2 | (D2 E2 D2) x2 | (D2 C2 D2) x2 | %12
 (F2 ^F2 G2) x2 | (F2 =E2 F2) x2 | (B2 A2 B2) x2 | (F2 G2 F2) x2 | x8 | x6 |] %18
V:3
 [B,,B,][B,,B,] | [B,,F,]2 [B,,F,]2 [B,,B,]2 [D,B,]2 | [E,B,]2 [G,B,]2 B,2 [B,,B,][B,,B,] | %3
w: ||* * ’twill * *|
 [B,,F,]2 [B,,F,]2 [B,,B,][B,,B,][C,A,][D,B,] | [F,A,]6 [F,A,][F,A,] | %5
w: ||
 [B,,B,]2 [B,,F,]2 [B,,B,]2 [D,B,]2 | [E,B,]2 [G,B,]2 B,2 B,B, | B,2 B,2 [F,B,]F,F,F, | [B,,F,]6 || %9
w: |* * be! ’twill be!|When He * comes a- gain||
 [B,,B,]2 | [B,,F,]2 [B,,G,]2 [B,,F,]2 [B,,B,]2 | [B,,B,]2 [F,,A,]2 [B,,B,]2 [D,B,][F,A,] | %12
w: |* in the *|* love- lit sky! ’twill|
 B,2 [A,C]2 [G,B,]2 [C,G,][C,G,] | [F,A,]2 [G,B,]2 [F,A,]2 B,2 | [B,D]2 [F,C]2 [B,D]2 [B,D]2 | %15
w: be! ’twill be! * *|||
 B,2 [G,B,]2 B,2 B,B, | B,2 B,2 [F,B,]F,F,F, | [B,,F,]6 |] %18
w: |||
V:4
 x2 | x8 | x4 B,2 x2 | x8 | x8 | x8 | x4 B,2 B,B, | B,2 B,2 F,F,F, x | x6 || x2 | x8 | x8 | %12
 B,2 x6 | x6 B,2 | x8 | B,2 B,2 B,B, x2 | B,2 B,2 F,F,F, x | x6 |] %18

